X:1
T:9
L:1/8
M:2/4
K:Amin
V:1 treble nm="Piano" snm="Pno."
V:1
 Ae eA | d3 c | Bd cB | A>G E2 | A>B cd | e>g ed | cd/e/ dc | A3 z | GG/A/ cA | cc/d/ ed | %10
 ee/g/ de/g/ | e4 | Ae Ae | Ad Ad | cd/e/ dc | A3 z |] %16

